X: 3
T: Paddy Fahey's
M: 4/4
L: 1/8
R: reel
K: Ddor
"Dm"D2A,D FEFG|Add^c d2de|"Dm"fedf "C"edcA|"Bb"dcAG "Am"FDEC|
"Dm"D3E FEFG|Add^c d2de|"Bb"fedf edcA|"Am"dcAG "Dm"FDD2:| 
|:"D"Ad ~d2 ^fded|"C"c2 Gc EcGc|"D"Ad ~d2 ^fded|"C"cBcd "D"ed ~d2|
"Dm"a2 ^ga ABcA|"C"dcAG FD CE|"Bb"D2 A,D FEFG|"Am"Ad^ce "Dm"d4:|
%%text Paddy Fahey's -- 2 alternate chordings for first line of A part
"Dm""_Dm"D2A,D FEFG|"_Dm"Ad"_Dm/E"d^c "_Dm/F"d2de|"Bb""_Gm"fedf "Gm""_Am"edcA|"Am""_Bb"dcAG "C""_C"FDEC|
%%scale .5
%%text 4/25/13 

#include "LeftHeader.h"
%%text Set 115 NEFFA 2013 American Set
%%scale .9
%%vskip 3cm
$SmallLMargin
$SmallRMargin
